layouts/icon-pack/spell_lightning_blast.svg

<?xml version="1.0" encoding="UTF-8"?>
<svg width="1200pt" height="1200pt" version="1.1" viewBox="0 0 1200 1200" xmlns="http://www.w3.org/2000/svg">
 <g fill="#fff">
  <path d="m1130 930.45c0 15.094-12.234 27.328-27.328 27.328s-27.328-12.234-27.328-27.328 12.234-27.328 27.328-27.328 27.328 12.234 27.328 27.328"/>
  <path d="m316.59 623.47c5.7656 17.043-0.96094 34.715-15.023 39.473-14.062 4.7578-30.141-5.1992-35.906-22.246-5.7656-17.043 0.96094-34.715 15.027-39.473 14.062-4.7578 30.137 5.2031 35.902 22.246"/>
  <path d="m1019.3 75.492c-0.82031 19.172-17.508 76.453-30 139.92-0.47266 2.1914 0.74219 4.3984 2.8477 5.1719 2.1094 0.77344 4.4609-0.12109 5.5195-2.1016 21.094-37.5 74.109-100.55 114.05-137.86 1.9844-1.8555 2.6328-4.7344 1.6328-7.2578-1-2.5273-3.4414-4.1836-6.1562-4.1797h-81.258c-3.543-0.015625-6.4688 2.7656-6.6328 6.3047z"/>
  <path d="m1125 1110.4c-20.883-14.062-47.883-34.383-69.609-58.266-10.043-11.098-13.52-26.652-9.1641-40.969 2.457-8.1523 5.3789-16.156 8.7422-23.977 1.8398-4.2344 0.76953-9.1719-2.6641-12.262-3.4336-3.0898-8.4609-3.6328-12.477-1.3555-14.344 8.2266-32.156 17.789-51.844 26.977-4.5078 2.0781-9.6836 2.1719-14.262 0.25-4.5781-1.9219-8.1367-5.6758-9.8125-10.352-1.6719-4.6719-1.3047-9.8359 1.0117-14.227 30.469-57.867 88.336-162.05 147.21-234.98 3.7617-4.6992 4.7461-11.047 2.5781-16.664-7.3125-18.914-24.258-63.422-36.047-99.305-1.8711-5.7109-6.5742-10.043-12.422-11.438l-25.406-6.0234c-8.1211-1.9102-14.973-7.3281-18.707-14.789-3.7344-7.457-3.9648-16.191-0.62891-23.836l64.828-149.62c1.4766-3.3555 0.19531-7.2852-2.9766-9.125-3.1719-1.8398-7.2227-0.99609-9.3984 1.9531l-158.79 212.37c-2.9258 3.918-3.8867 8.9688-2.6016 13.688 1.2891 4.7188 4.6758 8.5859 9.1875 10.477l72.328 30.281c5.5391 2.293 10.258 6.207 13.539 11.223 3.2852 5.0156 4.9766 10.906 4.8594 16.902-0.23437 10.57-2.3438 23.438-9.375 33.914l-42.867 72.891c-2.1094 3.5898-5.2461 6.4609-9.0078 8.2383-3.7617 1.7812-7.9727 2.3906-12.086 1.7461l-41.953-6.7031c-4.3672-0.70312-8.8359-0.375-13.055 0.96094l-96.234 30.469s-2.4844-202.78 95.133-337.97c0 0 20.484-120.52 77.344-218.3 6.0703-10.43-7.4297-21.094-16.406-12.961-34.172 31.5-69.984 73.664-93.75 101.09l43.055-296.3c0.55078-3.7852-0.57031-7.6211-3.0703-10.516-2.5-2.8906-6.1367-4.5547-9.9609-4.5547h-82.828c-5.5391-0.0625-10.391 3.6914-11.719 9.0703-83.953 346.38-97.828 747.82-99.961 841.83-0.15625 5.7812 1.832 11.414 5.5781 15.82 3.7461 4.4023 8.9883 7.2656 14.719 8.0391 43.805 5.8594 90.914 3.7031 116.18 1.7578 2.0391-0.070312 3.8906 1.1875 4.5742 3.1094 0.6875 1.9219 0.050782 4.0664-1.5742 5.3047-12.398 8.7422-24.492 18.75-33.586 26.578-4.5898 3.9258-7.3125 9.6094-7.4922 15.648-0.17578 6.0391 2.2031 11.871 6.5547 16.062 28.266 26.625 67.289 27.773 84.703 26.742 5.0156-0.28906 9.4297 3.2852 10.195 8.25 4.8047 30.469 16.406 52.43 30.727 68.109 8.8867 9.7539 21.469 15.309 34.664 15.305h167.65c5.0039 0.12891 9.4844-3.082 10.969-7.8633 1.4805-4.7812-0.39453-9.9648-4.5938-12.691z"/>
  <path d="m385.48 1065.4c6.75-13.047 7.4531-28.391 1.9219-42-4.9102-12.266-9.168-24.785-12.75-37.5-1.168-4.1992 0.30859-8.6875 3.7383-11.375 3.4336-2.6875 8.1445-3.0469 11.941-0.90625 30.773 16.969 67.594 22.383 91.992 24.023 7.625 0.51953 15.145-1.9844 20.938-6.9648 5.793-4.9844 9.3945-12.047 10.023-19.66 2.0859-27.352-1.2422-55.102-4.6875-75-0.58984-3.2031 0.89453-6.4336 3.707-8.0781 2.8125-1.6406 6.3555-1.3438 8.8555 0.74219 13.07 10.754 27.43 19.832 42.75 27.023 7.5078 3.5742 16.34 2.9375 23.258-1.6758 6.918-4.6094 10.902-12.52 10.492-20.824-12.398-250.78 24.234-663.28 38.602-810.94 0.33203-3.3398-0.76562-6.6602-3.0234-9.1445-2.2539-2.4844-5.457-3.8984-8.8125-3.8867h-138.98c-3.1836-0.007813-6.2383 1.2656-8.4766 3.5312-2.2383 2.2617-3.4727 5.332-3.4297 8.5156 1.5938 103.95 0.67969 256.24-0.49219 372.91-0.1875 16.945-24.773 18.75-27.562 2.1562-22.594-136.2-52.922-305.7-65.836-377.34-1.0156-5.668-5.9609-9.7812-11.719-9.75h-49.711c-3.9453-0.003906-7.6836 1.7578-10.188 4.8047-2.5078 3.043-3.5156 7.0547-2.75 10.922 7.0312 35.156 24.891 126.26 45.516 237.7-19.5-30.164-17.977-29.695-71.32-77.695-3.3164-2.9727-5.375-7.0938-5.7656-11.531-1.9219-22.641-9.375-97.172-26.273-160.38-0.625-2.293-2.7109-3.875-5.0859-3.8672h-77.883c-1.9688-0.003906-3.7734 1.0898-4.6758 2.8398-0.90625 1.7461-0.75391 3.8555 0.38672 5.457 14.062 19.641 46.289 76.453 56.25 194.32 0.23047 2.7969 1.1992 5.4805 2.8125 7.7812 1.6094 2.2969 3.8008 4.125 6.3516 5.2969 23.297 10.664 90 45.609 139.45 115.17 27.469 152.34 56.414 325.05 69.656 443.98 0.58594 5.207-2.6055 10.098-7.6094 11.652-5 1.5586-10.406-0.65625-12.875-5.2773-19.43-36.023-47.367-86.531-75-131.88-2.7109-4.4531-8.1992-6.3594-13.086-4.5391s-7.793 6.8516-6.9297 11.992c5.2969 31.102 7.1484 67.523-4.4531 95.367 0 0-82.617-5.0156-117.68-27.539 0 0-4.9922-97.641 0-177.75 0 0-59.32-110.16-124.78-162.7v30.703s27.164 41.883 39.68 82.031c0 0 9.2109 149.58-5.4844 261.21-0.53516 4.1367 0.20313 8.3359 2.1172 12.043 1.9141 3.707 4.9102 6.7422 8.5938 8.6992 30.117 16.055 107.48 58.852 164.06 103.76 20.156 16.031 10.336 48.891-15.375 50.25-12.164 0.65625-36.234-8.4844-59.977-21.094-3.8047-1.9922-8.457-1.3008-11.52 1.707-3.0625 3.0078-3.8359 7.6484-1.9102 11.488 6.7969 13.523 13.852 28.805 17.203 39.844-40.43 30.566-84.84 55.477-132 74.039-5.2539 2.043-8.3086 7.5391-7.2695 13.078 1.0352 5.543 5.875 9.5586 11.512 9.5625h232.38c12.387-0.035156 24.262-4.9336 33.07-13.641 15.309-15.133 28.168-32.562 38.109-51.656zm83.719-542.72c12.188 0 22.055 12.727 22.055 28.453s-9.8672 28.453-22.055 28.453-22.078-12.75-22.078-28.453 9.9141-28.453 22.078-28.453z"/>
 </g>
</svg>

<?xml version="1.0" encoding="UTF-8" standalone="no"?>
<!DOCTYPE svg PUBLIC "-//W3C//DTD SVG 1.1//EN" "http://www.w3.org/Graphics/SVG/1.1/DTD/svg11.dtd">
<svg width="100%" height="100%" viewBox="0 0 512 512" version="1.1" xmlns="http://www.w3.org/2000/svg" xmlns:xlink="http://www.w3.org/1999/xlink" xml:space="preserve" xmlns:serif="http://www.serif.com/" style="fill-rule:evenodd;clip-rule:evenodd;stroke-linejoin:round;stroke-miterlimit:2;">
    <g transform="matrix(1,0,0,1,-70.2032,-69.1847)">
        <g transform="matrix(0.482209,0,0,0.482209,36.3506,35.8233)">
            <path d="M1130,930.45C1130,945.544 1117.77,957.778 1102.67,957.778C1087.58,957.778 1075.34,945.544 1075.34,930.45C1075.34,915.356 1087.58,903.122 1102.67,903.122C1117.77,903.122 1130,915.356 1130,930.45" style="fill:white;fill-rule:nonzero;"/>
            <path d="M316.59,623.47C322.356,640.513 315.629,658.185 301.567,662.943C287.505,667.701 271.426,657.744 265.661,640.697C259.895,623.654 266.622,605.982 280.688,601.224C294.75,596.466 310.825,606.427 316.59,623.47" style="fill:white;fill-rule:nonzero;"/>
            <path d="M1019.3,75.492C1018.48,94.664 1001.79,151.945 989.3,215.412C988.827,217.603 990.042,219.81 992.148,220.584C994.257,221.357 996.609,220.463 997.667,218.482C1018.76,180.982 1071.78,117.932 1111.72,80.622C1113.7,78.767 1114.35,75.888 1113.35,73.364C1112.35,70.837 1109.91,69.181 1107.19,69.185L1025.94,69.185C1022.39,69.169 1019.47,71.95 1019.3,75.489L1019.3,75.492Z" style="fill:white;fill-rule:nonzero;"/>
            <path d="M1125,1110.4C1104.12,1096.34 1077.12,1076.02 1055.39,1052.13C1045.35,1041.04 1041.87,1025.48 1046.23,1011.17C1048.68,1003.01 1051.61,995.009 1054.97,987.188C1056.81,982.954 1055.74,978.016 1052.31,974.926C1048.87,971.836 1043.84,971.293 1039.83,973.57C1025.48,981.797 1007.67,991.359 987.984,1000.55C983.476,1002.63 978.3,1002.72 973.722,1000.8C969.144,998.876 965.585,995.122 963.91,990.445C962.238,985.774 962.605,980.61 964.921,976.218C995.39,918.352 1053.26,814.169 1112.13,741.238C1115.89,736.539 1116.88,730.191 1114.71,724.574C1107.4,705.66 1090.45,661.152 1078.66,625.269C1076.79,619.559 1072.09,615.226 1066.24,613.831L1040.83,607.808C1032.71,605.898 1025.86,600.48 1022.13,593.019C1018.39,585.562 1018.16,576.828 1021.5,569.183L1086.33,419.563C1087.8,416.208 1086.52,412.278 1083.35,410.438C1080.18,408.598 1076.13,409.442 1073.95,412.391L915.161,624.761C912.236,628.679 911.275,633.73 912.56,638.449C913.849,643.168 917.236,647.035 921.747,648.926L994.075,679.207C999.614,681.5 1004.33,685.414 1007.61,690.43C1010.9,695.446 1012.59,701.336 1012.47,707.332C1012.24,717.902 1010.13,730.77 1003.1,741.246L960.232,814.137C958.122,817.727 954.986,820.598 951.224,822.375C947.462,824.157 943.251,824.766 939.138,824.122L897.185,817.418C892.818,816.715 888.349,817.043 884.13,818.379L787.896,848.848C787.896,848.848 785.411,646.068 883.029,510.878C883.029,510.878 903.513,390.358 960.373,292.578C966.443,282.148 952.943,271.484 943.967,279.617C909.795,311.117 873.983,353.281 850.217,380.707L893.272,84.407C893.823,80.622 892.702,76.786 890.202,73.891C887.702,71.001 884.065,69.337 880.241,69.337L797.413,69.337C791.874,69.274 787.022,73.028 785.694,78.407C701.741,424.787 687.866,826.227 685.733,920.237C685.576,926.018 687.565,931.651 691.311,936.057C695.057,940.459 700.299,943.323 706.03,944.096C749.835,949.956 796.944,947.799 822.21,945.854C824.249,945.784 826.1,947.041 826.784,948.963C827.471,950.885 826.835,953.03 825.21,954.268C812.812,963.01 800.718,973.018 791.624,980.846C787.034,984.772 784.311,990.455 784.132,996.494C783.956,1002.53 786.335,1008.37 790.686,1012.56C818.952,1039.18 857.975,1040.33 875.389,1039.3C880.405,1039.01 884.819,1042.58 885.584,1047.55C890.389,1078.02 901.99,1099.98 916.311,1115.66C925.198,1125.41 937.78,1130.97 950.975,1130.96L1118.62,1130.96C1123.63,1131.09 1128.11,1127.88 1129.59,1123.1C1131.08,1118.32 1129.2,1113.13 1125,1110.41L1125,1110.4Z" style="fill:white;fill-rule:nonzero;"/>
            <path d="M385.48,1065.4C392.23,1052.35 392.933,1037.01 387.402,1023.4C382.492,1011.13 378.234,998.615 374.652,985.9C373.484,981.701 374.96,977.213 378.39,974.525C381.824,971.838 386.535,971.478 390.331,973.619C421.104,990.588 457.925,996.002 482.323,997.642C489.948,998.161 497.468,995.657 503.261,990.677C509.054,985.693 512.656,978.63 513.284,971.017C515.37,943.665 512.042,915.915 508.597,896.017C508.007,892.814 509.491,889.583 512.304,887.939C515.116,886.298 518.659,886.595 521.159,888.681C534.229,899.435 548.589,908.513 563.909,915.704C571.417,919.278 580.249,918.642 587.167,914.028C594.085,909.419 598.069,901.508 597.659,893.204C585.261,642.424 621.893,229.924 636.261,82.264C636.593,78.924 635.496,75.604 633.238,73.12C630.984,70.635 627.781,69.221 624.425,69.233L485.445,69.233C482.262,69.225 479.207,70.499 476.969,72.764C474.73,75.026 473.496,78.096 473.539,81.28C475.133,185.23 474.219,337.52 473.047,454.19C472.859,471.135 448.274,472.94 445.485,456.346C422.891,320.146 392.563,150.646 379.649,79.006C378.633,73.338 373.688,69.225 367.93,69.256L318.219,69.256C314.274,69.252 310.535,71.014 308.031,74.061C305.523,77.104 304.515,81.115 305.281,84.983C312.312,120.139 330.172,211.243 350.797,322.683C331.297,292.519 332.82,292.988 279.477,244.988C276.16,242.015 274.102,237.894 273.711,233.457C271.789,210.816 264.336,136.285 247.438,73.077C246.813,70.784 244.727,69.202 242.352,69.21L164.469,69.21C162.501,69.206 160.696,70.299 159.794,72.049C158.887,73.795 159.04,75.905 160.18,77.506C174.242,97.147 206.469,153.959 216.43,271.826C216.661,274.623 217.629,277.307 219.243,279.608C220.852,281.904 223.044,283.733 225.594,284.904C248.891,295.568 315.594,330.513 365.044,400.074C392.513,552.414 421.458,725.124 434.7,844.054C435.286,849.261 432.095,854.152 427.091,855.706C422.091,857.265 416.685,855.05 414.216,850.429C394.786,814.406 366.849,763.898 339.216,718.549C336.505,714.096 331.017,712.19 326.13,714.01C321.243,715.83 318.337,720.862 319.2,726.002C324.497,757.104 326.349,793.525 314.747,821.369C314.747,821.369 232.13,816.353 197.067,793.83C197.067,793.83 192.075,696.189 197.067,616.08C197.067,616.08 137.747,505.92 72.287,453.38L72.287,484.083C72.287,484.083 99.451,525.966 111.967,566.114C111.967,566.114 121.178,715.694 106.483,827.324C105.948,831.461 106.686,835.66 108.6,839.367C110.514,843.074 113.51,846.109 117.194,848.066C147.311,864.121 224.674,906.918 281.254,951.826C301.41,967.857 291.59,1000.72 265.879,1002.08C253.715,1002.73 229.645,993.592 205.902,980.982C202.097,978.99 197.445,979.681 194.382,982.689C191.319,985.697 190.546,990.338 192.472,994.177C199.268,1007.7 206.324,1022.98 209.675,1034.02C169.245,1064.59 124.835,1089.5 77.675,1108.06C72.421,1110.1 69.366,1115.6 70.405,1121.14C71.44,1126.68 76.28,1130.7 81.917,1130.7L314.297,1130.7C326.684,1130.67 338.559,1125.77 347.367,1117.06C362.676,1101.93 375.535,1084.5 385.476,1065.4L385.48,1065.4ZM469.199,522.68C481.387,522.68 491.254,535.407 491.254,551.133C491.254,566.859 481.387,579.586 469.199,579.586C457.011,579.586 447.121,566.836 447.121,551.133C447.121,535.43 457.035,522.68 469.199,522.68Z" style="fill:white;fill-rule:nonzero;"/>
        </g>
    </g>
</svg>
